papirus/32x32/apps/skydrive.svg

<svg height="32" width="32" xmlns="http://www.w3.org/2000/svg"><path d="m13 5c-2.847694 0-5.2727125 1.7289545-6.3164063 4.1761364-2.6507937.3908181-4.6835937 2.6316816-4.6835937 5.3693186 0 3.012477 2.4624187 5.454545 5.5 5.454545h11.6875c2.657875 0 4.8125-2.136818 4.8125-4.772727 0-2.449841-1.85735-4.457318-4.253906-4.730114-.625034-3.1273635-3.409175-5.497159-6.746094-5.497159z" fill="#a1bde8"/><path d="m13 5c-2.847694 0-5.2727125 1.7285993-6.3164062 4.1757812-2.6507938.3908181-4.6835938 2.6315038-4.6835938 5.3691408 0 .204629.0149771.40669.0371094.605469.1873774-2.552878 2.1264452-4.603069 4.6464844-4.97461 1.0436937-2.4471812 3.4687122-4.175781 6.3164062-4.175781 3.336919 0 6.12106 2.3706834 6.746094 5.498047 2.222568.252991 3.961416 2.002883 4.205078 4.208984.016365-.160132.048828-.316055.048828-.480469 0-2.449841-1.85735-4.455719-4.253906-4.728515-.625034-3.1273636-3.409175-5.498047-6.746094-5.498047z" fill="#fff" opacity=".1"/><path d="m2.0371094 14.150391c-.0097223.132458-.0371094.259493-.0371094.394531 0 3.012477 2.4624187 5.455078 5.5 5.455078h11.6875c2.657875 0 4.8125-2.137529 4.8125-4.773438 0-.177855-.029754-.346832-.048828-.519531-.245998 2.407144-2.271581 4.292969-4.763672 4.292969h-11.6875c-2.8312468 0-5.1592003-2.12204-5.4628906-4.849609z" opacity=".2"/><path d="m19 12c-2.847694 0-5.272712 1.728955-6.316406 4.176136-2.650794.390819-4.683594 2.631682-4.683594 5.369319 0 3.012477 2.462419 5.454545 5.5 5.454545h11.6875c2.657875 0 4.8125-2.136818 4.8125-4.772727 0-2.449841-1.85735-4.457318-4.253906-4.730114-.625034-3.127364-3.409175-5.497159-6.746094-5.497159z" fill="#5481c5"/><path d="m8.0371094 21.150391c-.0097223.132458-.0371094.259493-.0371094.394531 0 3.012477 2.462419 5.455078 5.5 5.455078h11.6875c2.657875 0 4.8125-2.137529 4.8125-4.773438 0-.177855-.029754-.346832-.048828-.519531-.245998 2.407144-2.271581 4.292969-4.763672 4.292969h-11.6875c-2.831247 0-5.1592002-2.12204-5.4628906-4.849609z" opacity=".3"/></svg>

<?xml version="1.0" encoding="UTF-8" standalone="no"?>
<!-- Created with Inkscape (http://www.inkscape.org/) -->

<svg
   xmlns:dc="http://purl.org/dc/elements/1.1/"
   xmlns:cc="http://creativecommons.org/ns#"
   xmlns:rdf="http://www.w3.org/1999/02/22-rdf-syntax-ns#"
   xmlns:svg="http://www.w3.org/2000/svg"
   xmlns="http://www.w3.org/2000/svg"
   xmlns:sodipodi="http://sodipodi.sourceforge.net/DTD/sodipodi-0.dtd"
   xmlns:inkscape="http://www.inkscape.org/namespaces/inkscape"
   id="svg2817"
   height="32"
   width="32"
   version="1.0"
   inkscape:version="0.91 r13725"
   sodipodi:docname="skydrive.svg">
  <defs
     id="defs14" />
  <sodipodi:namedview
     pagecolor="#ffffff"
     bordercolor="#666666"
     borderopacity="1"
     objecttolerance="10"
     gridtolerance="10"
     guidetolerance="10"
     inkscape:pageopacity="0"
     inkscape:pageshadow="2"
     inkscape:window-width="1600"
     inkscape:window-height="847"
     id="namedview12"
     showgrid="false"
     inkscape:zoom="1"
     inkscape:cx="24"
     inkscape:cy="20.079495"
     inkscape:window-x="0"
     inkscape:window-y="0"
     inkscape:window-maximized="1"
     inkscape:current-layer="svg2817" />
  <metadata
     id="metadata57">
    <rdf:RDF>
      <cc:Work
         rdf:about="">
        <dc:format>image/svg+xml</dc:format>
        <dc:type
           rdf:resource="http://purl.org/dc/dcmitype/StillImage" />
        <dc:title></dc:title>
      </cc:Work>
    </rdf:RDF>
  </metadata>
  <path
     style="fill:#a1bde8;fill-opacity:1"
     inkscape:connector-curvature="0"
     d="M 13,5 C 10.152306,5 7.7272875,6.7289545 6.6835937,9.1761364 4.0328,9.5669545 2,11.807818 2,14.545455 2,17.557932 4.4624187,20 7.5,20 l 11.6875,0 C 21.845375,20 24,17.863182 24,15.227273 24,12.777432 22.14265,10.769955 19.746094,10.497159 19.12106,7.3697955 16.336919,5 13,5 Z"
     id="path4173" />
  <path
     style="fill:#ffffff;fill-opacity:1;opacity:0.1"
     d="M 13 5 C 10.152306 5 7.7272875 6.7285993 6.6835938 9.1757812 C 4.0328 9.5665993 2 11.807285 2 14.544922 C 2 14.749551 2.0149771 14.951612 2.0371094 15.150391 C 2.2244868 12.597513 4.1635546 10.547322 6.6835938 10.175781 C 7.7272875 7.7285998 10.152306 6 13 6 C 16.336919 6 19.12106 8.3706834 19.746094 11.498047 C 21.968662 11.751038 23.70751 13.50093 23.951172 15.707031 C 23.967537 15.546899 24 15.390976 24 15.226562 C 24 12.776721 22.14265 10.770843 19.746094 10.498047 C 19.12106 7.3706834 16.336919 5 13 5 z "
     id="path4333" />
  <path
     style="fill:#000000;fill-opacity:1;opacity:0.2"
     d="M 2.0371094 14.150391 C 2.0273871 14.282849 2 14.409884 2 14.544922 C 2 17.557399 4.4624187 20 7.5 20 L 19.1875 20 C 21.845375 20 24 17.862471 24 15.226562 C 24 15.048707 23.970246 14.87973 23.951172 14.707031 C 23.705174 17.114175 21.679591 19 19.1875 19 L 7.5 19 C 4.6687532 19 2.3407997 16.87796 2.0371094 14.150391 z "
     id="path4328" />
  <path
     id="path5884-5"
     d="m 19,12 c -2.847694,0 -5.272712,1.728955 -6.316406,4.176136 C 10.0328,16.566955 8,18.807818 8,21.545455 8,24.557932 10.462419,27 13.5,27 l 11.6875,0 C 27.845375,27 30,24.863182 30,22.227273 30,19.777432 28.14265,17.769955 25.746094,17.497159 25.12106,14.369795 22.336919,12 19,12 Z"
     inkscape:connector-curvature="0"
     style="fill:#5481c5;fill-opacity:1" />
  <path
     style="fill:#000000;fill-opacity:1;opacity:0.3"
     d="M 8.0371094 21.150391 C 8.0273871 21.282849 8 21.409884 8 21.544922 C 8 24.557399 10.462419 27 13.5 27 L 25.1875 27 C 27.845375 27 30 24.862471 30 22.226562 C 30 22.048707 29.970246 21.87973 29.951172 21.707031 C 29.705174 24.114175 27.679591 26 25.1875 26 L 13.5 26 C 10.668753 26 8.3407998 23.87796 8.0371094 21.150391 z "
     id="path4323" />
</svg>
